icons/video-camera-outline.svg

<svg xmlns="http://www.w3.org/2000/svg" width="24" height="24" viewBox="0 0 24 24">
  <path d="M13,6 L5,6 C3.34314575,6 2,7.34314575 2,9 L2,15 C2,16.6568542 3.34314575,18 5,18 L13,18 L13.1762728,17.9949073 C14.5761015,17.9137994 15.7184389,16.8729019 15.9550099,15.5204904 L15.967,15.435 L19.1055728,17.0041537 C19.3832837,17.1430092 19.6895098,17.2152993 20,17.2152993 C21.1045695,17.2152993 22,16.3198688 22,15.2152993 L22,8.45136732 C22,8.14087713 21.9277098,7.834651 21.7888544,7.55694013 L21.7135734,7.41983321 C21.1809458,6.53287334 20.0464842,6.19205723 19.1055728,6.66251294 L15.907,8.261 L15.8773722,8.14827175 C15.5103016,6.90628074 14.3609874,6 13,6 Z M5,8 L13,8 C13.5522847,8 14,8.44771525 14,9 L14,9.83333333 C14,10.5767154 14.7823125,11.0602111 15.4472136,10.7277605 L20,8.45136732 L20,15.2152993 L15.4472136,12.9389061 C14.7823125,12.6064556 14,13.0899513 14,13.8333333 L14,15 C14,15.5522847 13.5522847,16 13,16 L5,16 C4.44771525,16 4,15.5522847 4,15 L4,9 C4,8.44771525 4.44771525,8 5,8 Z"/>
</svg>

<svg xmlns="http://www.w3.org/2000/svg" viewBox="0 0 24 24">
  <path d="M13 6H5a3 3 0 0 0-3 3v6a3 3 0 0 0 3 3h8.18a3 3 0 0 0 2.78-2.48v-.08L19.12 17A2 2 0 0 0 22 15.22V8.45a2 2 0 0 0-.21-.9l-.08-.13a2 2 0 0 0-2.6-.76l-3.2 1.6-.03-.11A3 3 0 0 0 13 6zM5 8h8a1 1 0 0 1 1 1v.83a1 1 0 0 0 1.45.9L20 8.45v6.77l-4.55-2.28a1 1 0 0 0-1.45.9V15a1 1 0 0 1-1 1H5a1 1 0 0 1-1-1V9a1 1 0 0 1 1-1z"/>
</svg>
